X: 21791
Q: "Moderate."
M: C
L: 1/16
K: C
E2G2 G2AB c3dc2B2 | A3GA2c2 defe d2F2 |\
E2G2 G2AB cBcd {c}e3d | cBAG c3E {E}D4 C2 :| gf |\
e2g2 c2ef gfef g2fe | f2a2 d2fg agfg a2gf |
e2g2 c2ef gfef g4 | G3ce3c d4 c2gf |\
e2g2 c2ef gfef g2fe | f2a2 d2fg agfg a2gf |\
e3gd3e c3de3d | cBAG ABcE {E}D4 C2 |]


